X:2
T:Sunrise Serenade
C:Frankie Carle
L:1/8
M:C
I:linebreak $
K:Bb
"Gm" BAGB A2 G2 |"D7" d2 B2"Gm" G3 G | BAGB A2 G2 |"F7" fg^cd"Bb" z2 ga |$ b"Bbo"g_f_d B_dag |
"Bb" fdc"G7"=B z2 _a"C7"g | z2 _d"F7"c z2 BB ||1"Bb" z8 :|2$[K:G]"Bb" z4 z2 (3E^EF |
"D7" (3fE^E (3Ffe (3z =E^E (3Fed ||"G" z4 z2 (3E^EF |"D7" (3fE^E (3Ffe (3z =E^E (3Fed |$
"G" z4 z2 (3A^AB | (3bA^A (3Bba (3z =A^A (3Bag |"C" z4 z2 bg |"A7" bgeB ffaa |$"D7" e4 z2 (3E^EF |
(3fE^E (3Ffe (3z =E^E (3Fed |"G" z4 z2 (3E^EF |"D7" (3fE^E (3Ffe (3z =E^E (3Fed |$"G" z4 z2 ge |
"Go" ge^c^A G^Afe |"G" dBA"E7"^G z2 =f"A7"e | z2 _B"D7"A z2 GG |"G" z8 |]

